src/assets/outline/Courthouse.svg

<svg width="24" height="24" viewBox="0 0 24 24"  xmlns="http://www.w3.org/2000/svg">
<path d="M22 22.75H2C1.59 22.75 1.25 22.41 1.25 22C1.25 21.59 1.59 21.25 2 21.25H22C22.41 21.25 22.75 21.59 22.75 22C22.75 22.41 22.41 22.75 22 22.75Z" />
<path d="M14.5 6.22944C13.56 6.22944 12.62 6.04947 11.72 5.68947C11.44 5.57946 11.25 5.29945 11.25 4.98945V1.98945C11.25 1.73945 11.37 1.50946 11.58 1.36946C11.79 1.22946 12.05 1.19944 12.28 1.28944C13.71 1.85944 15.29 1.85944 16.72 1.28944C16.95 1.19944 17.21 1.22946 17.42 1.36946C17.63 1.50946 17.75 1.73945 17.75 1.98945V4.98945C17.75 5.29945 17.56 5.56947 17.28 5.68947C16.38 6.04947 15.44 6.22944 14.5 6.22944ZM12.75 4.46943C13.89 4.81943 15.11 4.81943 16.25 4.46943V3.01948C15.1 3.29948 13.9 3.29948 12.75 3.01948V4.46943Z" />
<path d="M12 8.75C11.59 8.75 11.25 8.41 11.25 8V5C11.25 4.59 11.59 4.25 12 4.25C12.41 4.25 12.75 4.59 12.75 5V8C12.75 8.41 12.41 8.75 12 8.75Z" />
<path d="M20 22.75H4C3.59 22.75 3.25 22.41 3.25 22V11C3.25 8.58 4.58 7.25 7 7.25H17C19.42 7.25 20.75 8.58 20.75 11V22C20.75 22.41 20.41 22.75 20 22.75ZM4.75 21.25H19.25V11C19.25 9.42 18.58 8.75 17 8.75H7C5.42 8.75 4.75 9.42 4.75 11V21.25Z" />
<path d="M19.4201 12.75H4.58008C4.17008 12.75 3.83008 12.41 3.83008 12C3.83008 11.59 4.17008 11.25 4.58008 11.25H19.4201C19.8301 11.25 20.1701 11.59 20.1701 12C20.1701 12.41 19.8301 12.75 19.4201 12.75Z" />
<path d="M8.74023 12H7.24023V22H8.74023V12Z" />
<path d="M12.7402 12H11.2402V22H12.7402V12Z" />
<path d="M16.7402 12H15.2402V22H16.7402V12Z" />
</svg>

<?xml version="1.0" encoding="UTF-8"?>
<svg width="24" height="24" viewBox="0 0 24 24" xmlns="http://www.w3.org/2000/svg">
 <path d="m22 22.75h-20c-0.41 0-0.75-0.34-0.75-0.75s0.34-0.75 0.75-0.75h20c0.41 0 0.75 0.34 0.75 0.75s-0.34 0.75-0.75 0.75z"/>
 <path d="m14.5 6.2294c-0.94 0-1.88-0.17997-2.78-0.53997-0.28-0.11001-0.47-0.39002-0.47-0.70002v-3c0-0.25 0.12-0.47999 0.33-0.61999s0.47-0.17002 0.7-0.08002c1.43 0.57 3.01 0.57 4.44 0 0.23-0.09 0.49-0.05998 0.7 0.08002s0.33 0.36999 0.33 0.61999v3c0 0.31-0.19 0.58002-0.47 0.70002-0.9 0.36-1.84 0.53997-2.78 0.53997zm-1.75-1.76c1.14 0.35 2.36 0.35 3.5 0v-1.45c-1.15 0.28-2.35 0.28-3.5 0v1.45z"/>
 <path d="m12 8.75c-0.41 0-0.75-0.34-0.75-0.75v-3c0-0.41 0.34-0.75 0.75-0.75s0.75 0.34 0.75 0.75v3c0 0.41-0.34 0.75-0.75 0.75z"/>
 <path d="m20 22.75h-16c-0.41 0-0.75-0.34-0.75-0.75v-11c0-2.42 1.33-3.75 3.75-3.75h10c2.42 0 3.75 1.33 3.75 3.75v11c0 0.41-0.34 0.75-0.75 0.75zm-15.25-1.5h14.5v-10.25c0-1.58-0.67-2.25-2.25-2.25h-10c-1.58 0-2.25 0.67-2.25 2.25v10.25z"/>
 <path d="m19.42 12.75h-14.84c-0.41 0-0.75-0.34-0.75-0.75s0.34-0.75 0.75-0.75h14.84c0.41 0 0.75 0.34 0.75 0.75s-0.34 0.75-0.75 0.75z"/>
 <path d="m8.7402 12h-1.5v10h1.5v-10z"/>
 <path d="m12.74 12h-1.5v10h1.5v-10z"/>
 <path d="m16.74 12h-1.5v10h1.5v-10z"/>
</svg>
